**kern
*staff1
*tb48
=1-
*clefG2
*k[b-e-]
*M3/4
4d/
.
.
.
.
.
.
.
.
.
.
.
4r
.
.
.
.
.
.
.
.
.
.
.
4r
.
.
.
.
.
.
.
.
.
.
.
=2
8.dd\
.
.
.
.
.
.
.
.
16b-\
.
.
8g/
.
.
.
.
.
8d/
.
.
.
.
.
8g/
.
.
.
.
.
8b-\
.
.
.
.
.
=3
4dd\
.
.
.
.
.
.
.
.
.
.
.
4cc#\
.
.
.
.
.
.
.
.
.
.
.
8r
.
.
.
.
.
8ccn\
.
.
.
.
.
=4
8b-\
.
.
.
.
.
8f#/
.
.
.
.
.
8g/
.
.
.
.
.
8d/
.
.
.
.
.
8g/
.
.
.
.
.
8b-\
.
.
.
.
.
=5
!!linebreak:original
4ee-\
.
.
.
.
.
.
.
.
.
.
.
4dd\
.
.
.
.
.
.
.
.
.
.
.
8r
.
.
.
.
.
8dd\
.
.
.
.
.
=6
4ee-\
.
.
.
.
.
.
.
.
.
.
.
8r
.
.
.
.
.
8b#/
.
.
.
.
.
4cc'\
.
.
.
.
.
.
.
.
.
.
.
=7
8b-/
.
.
.
.
.
8a-/L
.
.
.
.
.
8g/J
.
.
.
.
.
4f#/
.
.
.
.
.
.
.
.
.
.
.
8r
.
.
.
.
.
=8
4cc\
.
.
.
.
.
.
.
.
.
.
.
4bn\
.
.
.
.
.
.
.
.
.
.
.
8r
.
.
.
.
.
8g/
.
.
.
.
.
=9
!!linebreak:original
8.ff\
.
.
.
.
.
.
.
.
4g\ 4dd\
.
.
.
.
.
.
.
.
.
.
.
8bn/
.
.
.
.
.
8g/
.
.
.
.
.
16r
.
.
=10
4ff\
.
.
.
.
.
.
.
.
.
.
.
4ee-\
.
.
.
.
.
.
.
.
.
.
.
4r
.
.
.
.
.
.
.
.
.
.
.
=11
2ee-\
.
.
.
.
.
.
.
.
.
.
.
.
.
.
.
.
.
.
.
.
.
.
.
8dd\
.
.
.
.
.
8g/
.
.
.
.
.
=12
2cc\
.
.
.
.
.
.
.
.
.
.
.
.
.
.
.
.
.
.
.
.
.
.
.
4cc\
.
.
.
.
.
.
.
.
.
.
.
=13
!!linebreak:original
4.cc\
.
.
.
.
.
.
.
.
.
.
.
.
.
.
.
.
.
8g/
.
.
.
.
.
8e-/L
.
.
.
.
.
8c/J
.
.
.
.
.
=14
4a-/
.
.
.
.
.
.
.
.
.
.
.
4g/
.
.
.
.
.
.
.
.
.
.
.
8r
.
.
.
.
.
8g/
.
.
.
.
.
=15
4cc\
.
.
.
.
.
.
.
.
.
.
.
8r
.
.
.
.
.
8cc\
.
.
.
.
.
4dd-\
.
.
.
.
.
.
.
.
.
.
.
=16
8r
.
.
.
.
.
8dd-\
.
.
.
.
.
4.ff\
.
.
.
.
.
.
.
.
.
.
.
.
.
.
.
.
.
8dd-\
.
.
.
.
.
=17
!!linebreak:original
4dd-\
.
.
.
.
.
.
.
.
.
.
.
4cc\
.
.
.
.
.
.
.
.
.
.
.
4r
.
.
.
.
.
.
.
.
.
.
.
=18
8g/
.
.
.
.
.
8cc\
.
.
.
.
.
8ee-\L
.
.
.
.
.
8dd\J
.
.
.
.
.
8cc\L
.
.
.
.
.
8b-\J
.
.
.
.
.
=19
8a-/
.
.
.
.
.
8f#/
.
.
.
.
.
(4g/
.
.
.
.
.
.
.
.
.
.
.
4cc\)
.
.
.
.
.
.
.
.
.
.
.
=20
4bn/
.
.
.
.
.
.
.
.
.
.
.
4r
.
.
.
.
.
.
.
.
.
.
.
4r
.
.
.
.
.
.
.
.
.
.
.
=21
2r
.
.
.
.
.
.
.
.
.
.
.
.
.
.
.
.
.
.
.
.
.
.
.
==
*-
